packages/core/src/svgs/tokens/mono/AXL.svg

<svg width="24" height="24" viewBox="0 0 24 24" fill="none" xmlns="http://www.w3.org/2000/svg">
<path d="M13.1625 10.4188L19.2687 4.31874L16.9562 2L11.9999 6.94999L7.05623 2L4.74373 4.3125L10.8438 10.4188C10.9955 10.572 11.176 10.6937 11.3749 10.7766C11.574 10.8598 11.7875 10.9025 12.0032 10.9025C12.2187 10.9025 12.4322 10.8598 12.6313 10.7766C12.8302 10.6937 13.0107 10.572 13.1625 10.4188ZM22 16.9438L17.0563 11.9938L21.9937 7.04999L19.6813 4.73749L13.5812 10.8374C13.429 10.9891 13.3081 11.1692 13.2255 11.3677C13.1431 11.566 13.1007 11.7788 13.1007 11.9938C13.1007 12.2086 13.1431 12.4213 13.2255 12.6198C13.3081 12.8181 13.429 12.9984 13.5812 13.1499L19.6813 19.2562L22 16.9438ZM11.9999 17.0499L16.9374 21.9999L19.2562 19.6875L13.1563 13.5813C13.0042 13.4287 12.8235 13.3077 12.6244 13.2252C12.4255 13.1426 12.2123 13.1002 11.9969 13.1002C11.7815 13.1002 11.5681 13.1426 11.3692 13.2252C11.1703 13.3077 10.9896 13.4287 10.8375 13.5813L4.73123 19.6812L7.04373 21.9999L11.9999 17.0499ZM10.4187 13.1625C10.5711 13.0109 10.6918 12.8307 10.7744 12.6324C10.8568 12.4339 10.8993 12.2211 10.8993 12.0063C10.8993 11.7913 10.8568 11.5786 10.7744 11.3801C10.6918 11.1818 10.5711 11.0015 10.4187 10.85L4.31874 4.74374L2 7.05624L6.94997 12.0063L2 16.9499L4.31249 19.2625L10.4187 13.1625Z" fill="white"/>
</svg>

<svg xmlns="http://www.w3.org/2000/svg" width="24" height="24" fill="none" viewBox="0 0 24 24">
    <path fill="#fff" d="m13.163 10.419 6.106-6.1L16.956 2 12 6.95 7.056 2 4.744 4.313l6.1 6.106a1.63 1.63 0 0 0 2.319 0M22 16.944l-4.944-4.95 4.938-4.944-2.313-2.313-6.1 6.1a1.64 1.64 0 0 0-.355 1.783c.082.198.203.378.355.53l6.1 6.106zm-10 .106L16.937 22l2.32-2.312-6.1-6.107a1.63 1.63 0 0 0-1.788-.356c-.199.083-.38.204-.531.356l-6.107 6.1L7.044 22zm-1.581-3.888a1.633 1.633 0 0 0 0-2.312l-6.1-6.106L2 7.056l4.95 4.95L2 16.95l2.312 2.313z"/>
</svg>
